Numix-Light/16/status/indicator-keyboard-He-3.svg

<?xml version="1.0" encoding="UTF-8" standalone="no"?>
<svg
   xmlns:dc="http://purl.org/dc/elements/1.1/"
   xmlns:cc="http://creativecommons.org/ns#"
   xmlns:rdf="http://www.w3.org/1999/02/22-rdf-syntax-ns#"
   xmlns:svg="http://www.w3.org/2000/svg"
   xmlns="http://www.w3.org/2000/svg"
   xmlns:sodipodi="http://sodipodi.sourceforge.net/DTD/sodipodi-0.dtd"
   xmlns:inkscape="http://www.inkscape.org/namespaces/inkscape"
   viewBox="0 0 16 16"
   id="svg2"
   version="1.1"
   inkscape:version="0.91 r13725"
   sodipodi:docname="indicator-keyboard-He-3.svg">
  <metadata
     id="metadata14">
    <rdf:RDF>
      <cc:Work
         rdf:about="">
        <dc:format>image/svg+xml</dc:format>
        <dc:type
           rdf:resource="http://purl.org/dc/dcmitype/StillImage" />
      </cc:Work>
    </rdf:RDF>
  </metadata>
  <defs
     id="defs12" />
  <sodipodi:namedview
     pagecolor="#ffffff"
     bordercolor="#666666"
     borderopacity="1"
     objecttolerance="10"
     gridtolerance="10"
     guidetolerance="10"
     inkscape:pageopacity="0"
     inkscape:pageshadow="2"
     inkscape:window-width="640"
     inkscape:window-height="480"
     id="namedview10"
     showgrid="false"
     inkscape:zoom="14.75"
     inkscape:cx="8"
     inkscape:cy="8"
     inkscape:window-x="65"
     inkscape:window-y="24"
     inkscape:window-maximized="0"
     inkscape:current-layer="svg2" />
  <path
     style="fill:#353535;fill-opacity:1"
     d="M 1.5996094 0 C 0.71320937 2.9605947e-16 0 0.71320937 0 1.5996094 L 0 14.400391 C 2.9605947e-16 15.286791 0.71320937 16 1.5996094 16 L 14.400391 16 C 15.286791 16 16 15.286791 16 14.400391 L 16 1.5996094 C 16 0.71320937 15.286791 0 14.400391 0 L 1.5996094 0 z M 1.4140625 4.859375 L 2.0253906 4.859375 L 2.0253906 7.5683594 L 5.4101562 7.5683594 L 5.4101562 4.859375 L 6.0214844 4.859375 L 6.0214844 11.095703 L 5.4101562 11.095703 L 5.4101562 8.0996094 L 2.0253906 8.0996094 L 2.0253906 11.095703 L 1.4140625 11.095703 L 1.4140625 4.859375 z M 9.3554688 6.3359375 C 9.9254689 6.3359375 10.378844 6.5205781 10.714844 6.8925781 C 11.056844 7.2645781 11.228516 7.8373281 11.228516 8.6113281 C 11.228516 8.6593281 11.22475 8.7078594 11.21875 8.7558594 C 11.21875 8.8038594 11.214984 8.848625 11.208984 8.890625 L 7.9433594 8.890625 C 7.9613594 9.460625 8.1012344 9.8990779 8.3652344 10.205078 C 8.6292344 10.511078 9.049 10.664062 9.625 10.664062 C 9.9430001 10.664062 10.194859 10.634219 10.380859 10.574219 C 10.566859 10.514219 10.703109 10.463875 10.787109 10.421875 L 10.894531 10.925781 C 10.810531 10.973781 10.651969 11.029703 10.417969 11.095703 C 10.189969 11.161703 9.919422 11.195312 9.6074219 11.195312 C 9.1994219 11.195312 8.8524531 11.135625 8.5644531 11.015625 C 8.2764531 10.895625 8.0395156 10.727719 7.8535156 10.511719 C 7.6675156 10.295719 7.5312656 10.040094 7.4472656 9.7460938 C 7.3632656 9.4460938 7.3222656 9.119625 7.3222656 8.765625 C 7.3222656 8.357625 7.3781875 8.003125 7.4921875 7.703125 C 7.6121875 7.397125 7.7651719 7.1415 7.9511719 6.9375 C 8.1431719 6.7335 8.3596094 6.5842812 8.5996094 6.4882812 C 8.8456094 6.3862812 9.0974687 6.3359375 9.3554688 6.3359375 z M 9.3652344 6.8574219 C 9.1552344 6.8574219 8.964875 6.8984219 8.796875 6.9824219 C 8.634875 7.0664219 8.4912344 7.1802187 8.3652344 7.3242188 C 8.2452344 7.4622188 8.150125 7.6245469 8.078125 7.8105469 C 8.012125 7.9965469 7.9729375 8.1924844 7.9609375 8.3964844 L 10.625 8.3964844 C 10.613 7.9104844 10.499203 7.5317188 10.283203 7.2617188 C 10.067203 6.9917187 9.7612344 6.8574219 9.3652344 6.8574219 z M 13.216797 8.7539062 C 13.419597 8.7539062 13.593981 8.7793781 13.738281 8.8300781 C 13.886481 8.8807781 14.007969 8.953275 14.105469 9.046875 C 14.202969 9.136575 14.275466 9.2463 14.322266 9.375 C 14.369066 9.4997999 14.392578 9.6350031 14.392578 9.7832031 C 14.392578 10.021103 14.327919 10.217041 14.199219 10.369141 C 14.074419 10.517341 13.913744 10.625106 13.714844 10.691406 C 13.824044 10.718706 13.927897 10.759859 14.029297 10.818359 C 14.134597 10.872959 14.228647 10.945456 14.310547 11.035156 C 14.392447 11.120956 14.459066 11.226762 14.509766 11.351562 C 14.560466 11.476362 14.585938 11.623316 14.585938 11.791016 C 14.585938 11.962616 14.554587 12.119372 14.492188 12.263672 C 14.433687 12.407972 14.343556 12.535331 14.222656 12.644531 C 14.105656 12.749831 13.956737 12.834084 13.773438 12.896484 C 13.590137 12.954984 13.374606 12.984375 13.128906 12.984375 C 13.000206 12.984375 12.880684 12.974578 12.771484 12.955078 C 12.666184 12.939478 12.574088 12.919884 12.492188 12.896484 C 12.410288 12.873084 12.33975 12.849572 12.28125 12.826172 C 12.22665 12.802772 12.185503 12.783178 12.158203 12.767578 L 12.257812 12.427734 C 12.281212 12.443334 12.3204 12.462928 12.375 12.486328 C 12.4296 12.509728 12.494259 12.533241 12.568359 12.556641 C 12.646359 12.576141 12.730619 12.593775 12.824219 12.609375 C 12.921719 12.624975 13.027525 12.632813 13.140625 12.632812 C 13.511125 12.632812 13.7776 12.556397 13.9375 12.404297 C 14.0974 12.248297 14.175781 12.040597 14.175781 11.779297 C 14.175781 11.607697 14.142472 11.464663 14.076172 11.351562 C 14.013772 11.238462 13.927553 11.148331 13.814453 11.082031 C 13.705253 11.011831 13.575934 10.962847 13.427734 10.935547 C 13.283434 10.904347 13.128644 10.888672 12.964844 10.888672 L 12.90625 10.888672 L 12.90625 10.574219 L 13.041016 10.574219 C 13.146316 10.574219 13.254081 10.564422 13.363281 10.544922 C 13.476381 10.521522 13.578269 10.480375 13.667969 10.421875 C 13.761569 10.363375 13.837984 10.285 13.896484 10.1875 C 13.958884 10.09 13.988281 9.9646001 13.988281 9.8125 C 13.988281 9.6838 13.968681 9.5760281 13.925781 9.4863281 C 13.882881 9.3927281 13.8241 9.3182719 13.75 9.2636719 C 13.6798 9.2090719 13.595547 9.1698844 13.498047 9.1464844 C 13.404447 9.1191844 13.304519 9.1054687 13.199219 9.1054688 C 12.988619 9.1054688 12.825984 9.1348594 12.708984 9.1933594 C 12.591984 9.2518594 12.495975 9.3067219 12.421875 9.3574219 L 12.257812 9.0585938 C 12.296813 9.0312937 12.345797 8.9999438 12.404297 8.9648438 C 12.466697 8.9297438 12.539194 8.8964344 12.621094 8.8652344 C 12.702994 8.8340344 12.791172 8.8085625 12.888672 8.7890625 C 12.990072 8.7656625 13.099797 8.7539062 13.216797 8.7539062 z "
     id="path4" />
</svg>

<svg xmlns="http://www.w3.org/2000/svg" viewBox="0 0 16 16">
 <path d="m 1.6 0 c -0.886 0 -1.6 0.713 -1.6 1.6 l 0 12.801 c 0 0.886 0.713 1.6 1.6 1.6 l 12.801 0 c 0.886 0 1.6 -0.713 1.6 -1.6 l 0 -12.801 c 0 -0.886 -0.713 -1.6 -1.6 -1.6 l -12.801 0 z m -0.186 4.859 l 0.611 0 l 0 2.709 l 3.385 0 l 0 -2.709 l 0.611 0 l 0 6.236 l -0.611 0 l 0 -2.996 l -3.385 0 l 0 2.996 l -0.611 0 l 0 -6.236 z m 7.941 1.477 c 0.57 0 1.023 0.185 1.359 0.557 c 0.342 0.372 0.514 0.945 0.514 1.719 c 0 0.048 -0.004 0.097 -0.01 0.145 c 0 0.048 -0.004 0.093 -0.01 0.135 l -3.266 0 c 0.018 0.57 0.158 1.01 0.422 1.314 c 0.264 0.306 0.684 0.459 1.26 0.459 c 0.318 0 0.57 -0.03 0.756 -0.09 c 0.186 -0.06 0.322 -0.11 0.406 -0.152 l 0.107 0.504 c -0.084 0.048 -0.243 0.104 -0.477 0.17 c -0.228 0.066 -0.499 0.1 -0.811 0.1 c -0.408 0 -0.755 -0.06 -1.043 -0.18 c -0.288 -0.12 -0.525 -0.288 -0.711 -0.504 c -0.186 -0.216 -0.322 -0.472 -0.406 -0.766 c -0.084 -0.3 -0.125 -0.626 -0.125 -0.98 c 0 -0.408 0.056 -0.762 0.17 -1.063 c 0.12 -0.306 0.273 -0.562 0.459 -0.766 c 0.192 -0.204 0.408 -0.353 0.648 -0.449 c 0.246 -0.102 0.498 -0.152 0.756 -0.152 z m 0.01 0.521 c -0.21 0 -0.4 0.041 -0.568 0.125 c -0.162 0.084 -0.306 0.198 -0.432 0.342 c -0.12 0.138 -0.215 0.3 -0.287 0.486 c -0.066 0.186 -0.105 0.382 -0.117 0.586 l 2.664 0 c -0.012 -0.486 -0.126 -0.865 -0.342 -1.135 c -0.216 -0.27 -0.522 -0.404 -0.918 -0.404 z m 3.852 1.896 c 0.203 0 0.377 0.025 0.521 0.076 c 0.148 0.051 0.27 0.123 0.367 0.217 c 0.098 0.09 0.17 0.199 0.217 0.328 c 0.047 0.125 0.07 0.26 0.07 0.408 c 0 0.238 -0.065 0.434 -0.193 0.586 c -0.125 0.148 -0.285 0.256 -0.484 0.322 c 0.109 0.027 0.213 0.068 0.314 0.127 c 0.105 0.055 0.199 0.127 0.281 0.217 c 0.082 0.086 0.149 0.192 0.199 0.316 c 0.051 0.125 0.076 0.272 0.076 0.439 c 0 0.172 -0.031 0.328 -0.094 0.473 c -0.059 0.144 -0.149 0.272 -0.27 0.381 c -0.117 0.105 -0.266 0.19 -0.449 0.252 c -0.183 0.059 -0.399 0.088 -0.645 0.088 c -0.129 0 -0.248 -0.01 -0.357 -0.029 c -0.105 -0.016 -0.197 -0.035 -0.279 -0.059 c -0.082 -0.023 -0.152 -0.047 -0.211 -0.07 c -0.055 -0.023 -0.096 -0.043 -0.123 -0.059 l 0.1 -0.34 c 0.023 0.016 0.063 0.035 0.117 0.059 c 0.055 0.023 0.119 0.047 0.193 0.07 c 0.078 0.019 0.162 0.037 0.256 0.053 c 0.098 0.016 0.203 0.023 0.316 0.023 c 0.37 0 0.637 -0.076 0.797 -0.229 c 0.16 -0.156 0.238 -0.364 0.238 -0.625 c 0 -0.172 -0.033 -0.315 -0.1 -0.428 c -0.062 -0.113 -0.149 -0.203 -0.262 -0.27 c -0.109 -0.07 -0.239 -0.119 -0.387 -0.146 c -0.144 -0.031 -0.299 -0.047 -0.463 -0.047 l -0.059 0 l 0 -0.314 l 0.135 0 c 0.105 0 0.213 -0.01 0.322 -0.029 c 0.113 -0.023 0.215 -0.065 0.305 -0.123 c 0.094 -0.059 0.17 -0.137 0.229 -0.234 c 0.062 -0.098 0.092 -0.223 0.092 -0.375 c 0 -0.129 -0.02 -0.236 -0.063 -0.326 c -0.043 -0.094 -0.102 -0.168 -0.176 -0.223 c -0.07 -0.055 -0.154 -0.094 -0.252 -0.117 c -0.094 -0.027 -0.194 -0.041 -0.299 -0.041 c -0.211 0 -0.373 0.029 -0.49 0.088 c -0.117 0.059 -0.213 0.113 -0.287 0.164 l -0.164 -0.299 c 0.039 -0.027 0.088 -0.059 0.146 -0.094 c 0.062 -0.035 0.135 -0.068 0.217 -0.1 c 0.082 -0.031 0.17 -0.057 0.268 -0.076 c 0.101 -0.023 0.211 -0.035 0.328 -0.035 z" style="fill:#353535;fill-opacity:1"/>
</svg>
